X:11218
T:Morrison's
R:reel
Z:id:hn-reel-571
M:C|
K:D
A2dB A2FA|BFAF GFED|(3FED AD FA~A2|1 Bdeg fddB:|2 Bdeg fdd2||
|:dfaf g2ef|gfed cA~A2|1 dfaf g2fg|a2ge fdd2:|2 ~B3d cdec|dfag fddB||
